X:169
T:Steeping the Flax* (p)
B:NFID.247c  ("untitled polka")
169steep
S:PT
L:1/8
M:C
R:polka % A-B-A
Q:450
K:G
e/f/|g2B2 d2G2|B2d2 d3B|c2A2 F2A2|e2d2 d2ef|
g2B2 d2G2|B2d2 d3B|c2A2 F2A2|A2G2G3:|
B|A2d2 d^cdf|a2f2 f3a|g2e2 edeg|f2d2 d^cdB|
A2d2 d^cdf|a2f2 f2a2|g3f g2e2|1 d4 d2^c:|2 d4 d2ef||

%%%

